assets/icons/library.svg

<svg fill="none" height="40" viewBox="0 0 40 40" width="40" xmlns="http://www.w3.org/2000/svg"><path clip-rule="evenodd" d="m10.2 7.99995c0-1.5464 1.2536-2.8 2.8-2.8h19c1.5464 0 2.8 1.2536 2.8 2.8v19.00005c0 1.5463-1.2536 2.7999-2.8 2.7999h-19c-1.5464 0-2.8-1.2536-2.8-2.7999zm2.8-1.2c-.6627 0-1.2.53726-1.2 1.2v19.00005c0 .6627.5373 1.2 1.2 1.2h19c.6627 0 1.2-.5373 1.2-1.2v-19.00005c0-.66274-.5373-1.2-1.2-1.2zm-7.2 5.46315c.44183 0 .8.3581.8.8v19.0525c0 .6628.53726 1.2 1.2 1.2h19.0526c.4418 0 .8.3582.8.8s-.3582.8-.8.8h-19.0526c-1.54639 0-2.8-1.2536-2.8-2.8v-19.0525c0-.4419.35817-.8.8-.8zm21.9315 1.2828c-1.8506 0-3.6565-.7975-4.8393-1.444l.8536 8.5366c.032.1676.0489.3438.0489.5286 0 1.1396-.5175 2.0298-1.2712 2.6269-.7339.5814-1.6755.8772-2.5812.9282-.9031.0508-1.8558-.1372-2.6101-.627-.7824-.5081-1.3322-1.3366-1.3322-2.4385 0-1.0958.542-1.939 1.2908-2.4953.7301-.5424 1.662-.8234 2.5562-.8798.7019-.0443 1.4372.0465 2.0857.306l-.7156-7.1567c-.0132-.1316-.0228-.2821-.0137-.4283.0077-.1243.0337-.3642.183-.5872.0842-.1258.2092-.2481.3815-.3283.1699-.079.3385-.09517.4786-.084.2524.0202.4616.1324.5943.215.9756.6074 2.9714 1.7278 4.8907 1.7278.4418 0 .8.3582.8.8s-.3582.8-.8.8zm-4.9312-2.4442c.0008-.0135.0019-.0115-.0001.002zm-.8315.4599c0-.0002.0026.001.0082.004-.0054-.0023-.0081-.0038-.0082-.004zm.2256 9.6423-.0315-.3143c-.0699-.2862-.2544-.5064-.5455-.6797-.4086-.2434-1.0122-.3729-1.6697-.3314-.6545.0412-1.2712.2466-1.7027.5672-.4127.3066-.645.7028-.645 1.211 0 .502.2246.8505.6036 1.0966.4072.2644 1.0032.4078 1.6488.3714.6429-.0362 1.25-.2462 1.6776-.5849.3996-.3165.6542-.7495.6644-1.3359z" fill="#fff" fill-rule="evenodd"/></svg>

<svg width="40" height="40" viewBox="0 0 40 40" fill="none" xmlns="http://www.w3.org/2000/svg">
<path fill-rule="evenodd" clip-rule="evenodd" d="M10.2 7.99995C10.2 6.45355 11.4536 5.19995 13 5.19995H32C33.5464 5.19995 34.8 6.45355 34.8 7.99995V27C34.8 28.5463 33.5464 29.7999 32 29.7999H13C11.4536 29.7999 10.2 28.5463 10.2 27V7.99995ZM13 6.79995C12.3373 6.79995 11.8 7.33721 11.8 7.99995V27C11.8 27.6627 12.3373 28.2 13 28.2H32C32.6627 28.2 33.2 27.6627 33.2 27V7.99995C33.2 7.33721 32.6627 6.79995 32 6.79995H13ZM5.8 12.2631C6.24183 12.2631 6.6 12.6212 6.6 13.0631V32.1156C6.6 32.7784 7.13726 33.3156 7.8 33.3156H26.8526C27.2944 33.3156 27.6526 33.6738 27.6526 34.1156C27.6526 34.5574 27.2944 34.9156 26.8526 34.9156H7.8C6.25361 34.9156 5 33.662 5 32.1156V13.0631C5 12.6212 5.35817 12.2631 5.8 12.2631ZM27.7315 13.5459C25.8809 13.5459 24.075 12.7484 22.8922 12.1019L23.7458 20.6385C23.7778 20.8061 23.7947 20.9823 23.7947 21.1671C23.7947 22.3067 23.2772 23.1969 22.5235 23.794C21.7896 24.3754 20.848 24.6712 19.9423 24.7222C19.0392 24.773 18.0865 24.585 17.3322 24.0952C16.5498 23.5871 16 22.7586 16 21.6567C16 20.5609 16.542 19.7177 17.2908 19.1614C18.0209 18.619 18.9528 18.338 19.847 18.2816C20.5489 18.2373 21.2842 18.3281 21.9327 18.5876L21.2171 11.4309C21.2039 11.2993 21.1943 11.1488 21.2034 11.0026C21.2111 10.8783 21.2371 10.6384 21.3864 10.4154C21.4706 10.2896 21.5956 10.1673 21.7679 10.0871C21.9378 10.0081 22.1064 9.99193 22.2465 10.0031C22.4989 10.0233 22.7081 10.1355 22.8408 10.2181C23.8164 10.8255 25.8122 11.9459 27.7315 11.9459C28.1733 11.9459 28.5315 12.3041 28.5315 12.7459C28.5315 13.1877 28.1733 13.5459 27.7315 13.5459ZM22.8003 11.1017C22.8011 11.0882 22.8022 11.0902 22.8002 11.1037L22.8003 11.1017ZM21.9688 11.5616C21.9688 11.5614 21.9714 11.5626 21.977 11.5656C21.9716 11.5633 21.9689 11.5618 21.9688 11.5616ZM22.1944 21.2039L22.1629 20.8896C22.093 20.6034 21.9085 20.3832 21.6174 20.2099C21.2088 19.9665 20.6052 19.837 19.9477 19.8785C19.2932 19.9197 18.6765 20.1251 18.245 20.4457C17.8323 20.7523 17.6 21.1485 17.6 21.6567C17.6 22.1587 17.8246 22.5072 18.2036 22.7533C18.6108 23.0177 19.2068 23.1611 19.8524 23.1247C20.4953 23.0885 21.1024 22.8785 21.53 22.5398C21.9296 22.2233 22.1842 21.7903 22.1944 21.2039Z" fill="white"/>
</svg>
